Dominus_Funeral/scalable/actions/media-random-tracks-amarok.svg

<svg xmlns="http://www.w3.org/2000/svg" width="24" height="24"><path d="M17 4.5V7h-3.33c-2.77 0-5 2.23-5 5a3.33 3.33 0 0 1-3.34 3.33H2V17h3.33c2.77 0 5-2.23 5-5a3.33 3.33 0 0 1 3.34-3.33H17v2.5l5-3.34-5-3.33zM2 7v1.67h3.33c.67 0 1.3.2 1.81.53.13-.55.35-1.07.64-1.54A4.97 4.97 0 0 0 5.33 7H2zm.2 3.06v.75h1.3v3.13h1v-3.13h1.3v-.75H2.2zM17 12.83v2.5h-3.33c-.67 0-1.3-.2-1.81-.53a4.96 4.96 0 0 1-.64 1.54c.72.4 1.55.66 2.45.66H17v2.5l5-3.33-5-3.34z" fill="#1a1a1a"/></svg>

<?xml version="1.0" encoding="UTF-8" standalone="no"?>
<svg
   xmlns:dc="http://purl.org/dc/elements/1.1/"
   xmlns:cc="http://creativecommons.org/ns#"
   xmlns:rdf="http://www.w3.org/1999/02/22-rdf-syntax-ns#"
   xmlns:svg="http://www.w3.org/2000/svg"
   xmlns="http://www.w3.org/2000/svg"
   xmlns:sodipodi="http://sodipodi.sourceforge.net/DTD/sodipodi-0.dtd"
   xmlns:inkscape="http://www.inkscape.org/namespaces/inkscape"
   width="24"
   height="24"
   version="1.1"
   id="svg4"
   sodipodi:docname="media-random-tracks-amarok.svg"
   inkscape:version="0.92.4 (5da689c313, 2019-01-14)">
  <metadata
     id="metadata10">
    <rdf:RDF>
      <cc:Work
         rdf:about="">
        <dc:format>image/svg+xml</dc:format>
        <dc:type
           rdf:resource="http://purl.org/dc/dcmitype/StillImage" />
        <dc:title></dc:title>
      </cc:Work>
    </rdf:RDF>
  </metadata>
  <defs
     id="defs8" />
  <sodipodi:namedview
     pagecolor="#ffffff"
     bordercolor="#666666"
     borderopacity="1"
     objecttolerance="10"
     gridtolerance="10"
     guidetolerance="10"
     inkscape:pageopacity="0"
     inkscape:pageshadow="2"
     inkscape:window-width="1112"
     inkscape:window-height="480"
     id="namedview6"
     showgrid="false"
     inkscape:zoom="9.8333333"
     inkscape:cx="1.0677966"
     inkscape:cy="12"
     inkscape:window-x="0"
     inkscape:window-y="25"
     inkscape:window-maximized="0"
     inkscape:current-layer="svg4" />
  <path
     d="M 17,4.5 V 7 h -3.33 c -2.77,0 -5,2.23 -5,5 A 3.33,3.33 0 0 1 5.33,15.33 H 2 V 17 h 3.33 c 2.77,0 5,-2.23 5,-5 A 3.33,3.33 0 0 1 13.67,8.67 H 17 v 2.5 L 22,7.83 Z M 2,7 V 8.67 H 5.33 C 6,8.67 6.63,8.87 7.14,9.2 7.27,8.65 7.49,8.13 7.78,7.66 A 4.97,4.97 0 0 0 5.33,7 Z m 0.2,3.06 v 0.75 h 1.3 v 3.13 h 1 V 10.81 H 5.8 V 10.06 Z M 17,12.83 v 2.5 h -3.33 c -0.67,0 -1.3,-0.2 -1.81,-0.53 a 4.96,4.96 0 0 1 -0.64,1.54 c 0.72,0.4 1.55,0.66 2.45,0.66 H 17 v 2.5 l 5,-3.33 z"
     id="path2"
     inkscape:connector-curvature="0"
     style="fill:#1a1a1a" />
</svg>
